X:495
T:the Dublin Jig
A:Wyresdale, Lancashire
B:H.S.J. Jackson, 1823
L:1/8
M:9/8
O:England
Z:Richard Robinson 
%%TUNEURL: http://www.leeds.ac.uk/music/Info/RRTuneBk/gettune/000005fb.html
%%ID:000005fb
K:A
f|\
ecA ABA agf | ecA FBA GFE |\
ecA Ace agf | ecA FBG A2  ::
c|\
BGE EGB dcB | cAc ece gec |\
BGE EGB dcB | cde dcB A2  |]
%page:57
